!!!COM: Morley, Thomas
!!!OTL: Eheu Sustulerunt Dominum
!!!YOR: from 'Collected Motets' edited by H.K. Andrews & Thurston Dart, pp.11-15
!!!YOO: Stainer & Bell (London)
!!!YOY: 1959
**kern	**kern	**kern	**kern
*ICvox	*ICvox	*ICvox	*ICvox
! Basis	! Tenor	! Altus	! Cantus
*M4/4	*M4/4	*M4/4	*M4/4
=1	=1	=1	=1
1r	1r	1r	1d
=2	=2	=2	=2
1D	1F	1d	1a
=3	=3	=3	=3
1AA	1E	2c#	4r
.	.	.	4e
.	.	4r	2a
.	.	4A	.
=4	=4	=4	=4
2r	4r	4d	4r
.	4D	{4.d	4f
4r	2A	.	2e
.	.	16c#	.
.	.	16B	.
4AA	.	4c#	.
=5	=5	=5	=5
2D	4r	4d	4r
.	4d	4f}	{4.dd
4r	2A	2e	.
.	.	.	8cc
[{4A	.	.	8cc
.	.	.	16b
.	.	.	16a
=6	=6	=6	=6
8A]	4r	4r	2b}
16G#	.	.	.
16F#	.	.	.
4G#	{4B	2e	.
4A	4c	.	4a
4Fn	4A	4d	[{4a
=7	=7	=7	=7
2E}	2B}	2e	4a]
.	.	.	4g#}
[2AA	2c#	4r	2a
.	.	[4e	.
=8	=8	=8	=8
2AA]	4r	4e]	2r
.	2A	4c	.
2r	.	2f	4r
.	4F	.	[4a
=9	=9	=9	=9
1r	4.c	4e	4a]
.	.	2g	4g
.	8B	.	.
.	4A	.	2cc
.	4A	4f#	.
=10	=10	=10	=10
4r	4G	4g	2.b
2E	2G	4.e	.
.	.	8e	.
4C	4E	4e	[4cc
=11	=11	=11	=11
2F	4.A	{4c	8cc]
.	.	.	8b
.	.	4d}	2a
.	8B	.	.
2E	8c	4e	.
.	8c	.	.
.	4B	[4e	4g#
=12	=12	=12	=12
4r	2A	8e]	2a
.	.	8d	.
4.A	.	4c	.
.	2E	2B	2r
8A	.	.	.
4G	.	.	.
=13	=13	=13	=13
{4F	4r	4A	4r
4D}	2A	4.f	4.dd
2AA	.	.	.
.	.	8f	8dd
.	4E	4e	4cc
=14	=14	=14	=14
{2D	8F	{4d	{4b
.	8D	.	.
.	4.d	4f}	4a
[2E	.	2e	4g#
.	8d	.	.
.	4c	.	[4a
=15	=15	=15	=15
2E}]	2B	4r	4a]
.	.	2e	4g#}
2AA	4A	.	2a
.	[4A	4c	.
=16	=16	=16	=16
{2D	4A]	2f	2r
.	4F	.	.
8AA	4c	2e	4r
8BB	.	.	.
8C	4c	.	[4a
8D}	.	.	.
=17	=17	=17	=17
2E	4.B	4r	4a]
.	.	4.e	4g
.	8B	.	.
2r	2A	.	2cc
.	.	8e	.
.	.	4f#	.
=18	=18	=18	=18
4r	{4.G	2g	2b
2E	.	.	.
.	8A	.	.
.	4B	2g	4r
4C	[4c	.	[4ee
=19	=19	=19	=19
{2F	8c]	4r	8ee]
.	8B	.	8ee
.	4A	4.a	4dd
2E}	2e}	.	{4cc
.	.	8a	.
.	.	4g	8b
.	.	.	8cc
=20	=20	=20	=20
4D	4A	{4f	2dd}
4.D	{4.F	4d	.
.	.	4f	2a
8D	8G	.	.
4C	[4A	4e	.
=21	=21	=21	=21
2BB	4A]	4d	2b
.	4G#}	4B}	.
4AA	4A	4c#	2e
4A	4cn	4A	.
=22	=22	=22	=22
4E	4B	4G#	2r
4G#	4B	4e	.
4A	4c	4e	4r
4F	4A	4d	4a
=23	=23	=23	=23
2E	2B	4e	4g#
.	.	4B	4g#
2AA	2A	{8c#	4a
.	.	4d	.
.	.	.	4e
.	.	8c#	.
=24	=24	=24	=24
4r	4r	2d}	{4.f
4D	4f	.	.
.	.	.	8g}
4C#	4e	4A	2a
4C#	4e	4a	.
=25	=25	=25	=25
4D	4f	4a	4r
4BB	4d	4g#	4dd
2AA	2e	4a	4cc#
.	.	4e	4cc#
=26	=26	=26	=26
2D	4d	2f	4dd
.	4d	.	4a
2r	4c#	2e	2a
.	4c#	.	.
=27	=27	=27	=27
1r	4d	{4f	4a
.	4f	2a	4dd
.	2e	.	4b
.	.	4g#	4b
=28	=28	=28	=28
4r	2A	2a}	4cc#
4A	.	.	4cc#
4F#	4r	4d	{4.dd
4F#	4d	4a	.
.	.	.	8ccn
=29	=29	=29	=29
4G	8d	4.g	2b-
.	8d	.	.
4G	4e	.	.
.	.	8g	.
[2A	4c#	4g	2a}
.	[{4d	4f	.
=30	=30	=30	=30
2A]	4d]	2e	1a
.	4c#}	.	.
4D	2d	4f#	.
[4d	.	[4fn	.
=31	=31	=31	=31
8d]	2r	8f]	4r
8c	.	8e	.
4B	.	4d	4.dd
{4A	4r	{8e	.
.	.	8f	8cc
4G	[4d	4g}	4b
=32	=32	=32	=32
4F#	8d]	2d	{4a
.	8c	.	.
4G}	4B	.	4g}
4D	2A	4r	4f#
[4D	.	[4fn	[4a
=33	=33	=33	=33
8D]	4D	8f]	8a]
8E	.	8e	8g
8F	4r	4d	4fn
8G	.	.	.
2A	2r	{8c#	2e
.	.	4d	.
.	.	8c#}	.
=34	=34	=34	=34
4D	4r	4d	4d
4.AA	4.e	4r	4.cc
.	.	4r	.
8BB	8d	.	8b
8C	4c	[4e	4a
{8D	.	.	.
=35	=35	=35	=35
1E}	{4B	8e]	{4g#
.	.	8d	.
.	4.e	4c	2a
.	.	2B	.
.	8d	.	.
.	4B}	.	4g#}
=36	=36	=36	=36
4AA	4c#	4A	2a
4.A	4.cn	4.f	.
.	.	.	4r
8G	8B	8e	.
4F	4A	4d	[4a
=37	=37	=37	=37
{4E	{8B	4e	8a]
.	8c	.	8g
4D}	4d}	2A	4f
4A	4c#	.	[2e
[4AA	[4cn	4r	.
=38	=38	=38	=38
8AA]	8c]	4r	2e]
8BB	8B	.	.
4C#	8A	4.a	.
.	{8G	.	.
{2D	8F#	.	4d
.	8G	8g	.
.	4A}	4fn	[4dd
=39	=39	=39	=39
*M3/2	*M3/2	*M3/2	*M3/2
2GG	4G	{4e	8dd]
.	.	.	8cc
.	4.G	4d	4b-
1AA}	.	4c#	1a
.	8G	.	.
.	4F	2d	.
.	2E	.	.
.	.	4c#}	.
=40	=40	=40	=40
*M4/4	*M4/4	*M4/4	*M4/4
1D;	1F#;	1d;	1a;
==	==	==	==
*-	*-	*-	*-
!!!ENC: Mark Laxton
!!!EDD: Mark Laxton
!!!YEC: Mark Laxton, 1987
!!!EMD: Reference records added by D. Huron, 2001
!!!EEV: 1.1
